images/28230.svg

<?xml version="1.0" encoding="UTF-8"?>
<svg xmlns="http://www.w3.org/2000/svg" xmlns:xlink="http://www.w3.org/1999/xlink" width="300pt" height="300pt" viewBox="0 0 300 300" version="1.1">
<defs>
<g>
<symbol overflow="visible" id="glyph0-0">
<path style="stroke:none;" d="M 0.546875 1.9375 L 0.546875 -7.75 L 6.046875 -7.75 L 6.046875 1.9375 Z M 1.171875 1.328125 L 5.4375 1.328125 L 5.4375 -7.140625 L 1.171875 -7.140625 Z M 1.171875 1.328125 "/>
</symbol>
<symbol overflow="visible" id="glyph0-1">
<path style="stroke:none;" d="M 1.078125 -8.015625 L 5.6875 -8.015625 L 5.6875 -7.109375 L 2.171875 -7.109375 L 2.171875 -4.75 L 5.34375 -4.75 L 5.34375 -3.828125 L 2.171875 -3.828125 L 2.171875 0 L 1.078125 0 Z M 1.078125 -8.015625 "/>
</symbol>
<symbol overflow="visible" id="glyph0-2">
<path style="stroke:none;" d="M 1.078125 -8.015625 L 2.546875 -8.015625 L 6.09375 -1.3125 L 6.09375 -8.015625 L 7.15625 -8.015625 L 7.15625 0 L 5.6875 0 L 2.125 -6.703125 L 2.125 0 L 1.078125 0 Z M 1.078125 -8.015625 "/>
</symbol>
<symbol overflow="visible" id="glyph0-3">
<path style="stroke:none;" d="M 4.328125 -7.28125 C 3.546875 -7.28125 2.921875 -6.984375 2.453125 -6.390625 C 1.992188 -5.804688 1.765625 -5.007812 1.765625 -4 C 1.765625 -2.988281 1.992188 -2.1875 2.453125 -1.59375 C 2.921875 -1.007812 3.546875 -0.71875 4.328125 -0.71875 C 5.117188 -0.71875 5.742188 -1.007812 6.203125 -1.59375 C 6.660156 -2.1875 6.890625 -2.988281 6.890625 -4 C 6.890625 -5.007812 6.660156 -5.804688 6.203125 -6.390625 C 5.742188 -6.984375 5.117188 -7.28125 4.328125 -7.28125 Z M 4.328125 -8.171875 C 5.453125 -8.171875 6.351562 -7.789062 7.03125 -7.03125 C 7.707031 -6.28125 8.046875 -5.269531 8.046875 -4 C 8.046875 -2.738281 7.707031 -1.726562 7.03125 -0.96875 C 6.351562 -0.21875 5.453125 0.15625 4.328125 0.15625 C 3.203125 0.15625 2.300781 -0.21875 1.625 -0.96875 C 0.957031 -1.71875 0.625 -2.726562 0.625 -4 C 0.625 -5.269531 0.957031 -6.28125 1.625 -7.03125 C 2.300781 -7.789062 3.203125 -8.171875 4.328125 -8.171875 Z M 4.328125 -8.171875 "/>
</symbol>
</g>
</defs>
<g id="surface14577">
<rect x="0" y="0" width="300" height="300" style="fill:rgb(100%,100%,100%);fill-opacity:1;stroke:none;"/>
<path style="fill:none;stroke-width:1.2;stroke-linecap:butt;stroke-linejoin:miter;stroke:rgb(20%,80%,80%);stroke-opacity:1;stroke-miterlimit:10;" d="M 82.570312 228.863281 L 83.433594 214.703125 "/>
<path style="fill:none;stroke-width:1.2;stroke-linecap:butt;stroke-linejoin:miter;stroke:rgb(0%,0%,0%);stroke-opacity:1;stroke-miterlimit:10;" d="M 83.433594 214.703125 L 84.300781 200.542969 "/>
<path style=" stroke:none;fill-rule:nonzero;fill:rgb(100%,100%,100%);fill-opacity:1;" d="M 79.570312 222.363281 L 86.570312 222.363281 L 86.570312 235.363281 L 79.570312 235.363281 Z M 79.570312 222.363281 "/>
<g style="fill:rgb(20%,80%,80%);fill-opacity:1;">
  <use xlink:href="#glyph0-1" x="79.570312" y="232.264648"/>
</g>
<path style="fill:none;stroke-width:1.2;stroke-linecap:butt;stroke-linejoin:miter;stroke:rgb(0%,0%,0%);stroke-opacity:1;stroke-miterlimit:10;" d="M 84.300781 200.542969 L 109.691406 187.882812 "/>
<path style="fill:none;stroke-width:1.2;stroke-linecap:butt;stroke-linejoin:miter;stroke:rgb(0%,0%,0%);stroke-opacity:1;stroke-miterlimit:10;" d="M 83.863281 193.300781 L 104.175781 183.175781 "/>
<path style="fill:none;stroke-width:1.2;stroke-linecap:butt;stroke-linejoin:miter;stroke:rgb(0%,0%,0%);stroke-opacity:1;stroke-miterlimit:10;" d="M 60.640625 184.882812 L 84.300781 200.542969 "/>
<path style="fill:none;stroke-width:1.2;stroke-linecap:butt;stroke-linejoin:miter;stroke:rgb(0%,0%,0%);stroke-opacity:1;stroke-miterlimit:10;" d="M 109.691406 187.882812 L 111.425781 159.5625 "/>
<path style="fill:none;stroke-width:1.2;stroke-linecap:butt;stroke-linejoin:miter;stroke:rgb(0%,0%,0%);stroke-opacity:1;stroke-miterlimit:10;" d="M 111.425781 159.5625 L 87.765625 143.902344 "/>
<path style="fill:none;stroke-width:1.2;stroke-linecap:butt;stroke-linejoin:miter;stroke:rgb(0%,0%,0%);stroke-opacity:1;stroke-miterlimit:10;" d="M 105.375 163.5625 L 86.445312 151.035156 "/>
<path style="fill:none;stroke-width:1.2;stroke-linecap:butt;stroke-linejoin:miter;stroke:rgb(0%,0%,0%);stroke-opacity:1;stroke-miterlimit:10;" d="M 87.765625 143.902344 L 88.632812 129.742188 "/>
<path style="fill:none;stroke-width:1.2;stroke-linecap:butt;stroke-linejoin:miter;stroke:rgb(0%,0%,100%);stroke-opacity:1;stroke-miterlimit:10;" d="M 88.632812 129.742188 L 89.496094 115.582031 "/>
<path style="fill:none;stroke-width:1.2;stroke-linecap:butt;stroke-linejoin:miter;stroke:rgb(0%,0%,0%);stroke-opacity:1;stroke-miterlimit:10;" d="M 87.765625 143.902344 L 62.375 156.5625 "/>
<path style="fill:none;stroke-width:1.2;stroke-linecap:butt;stroke-linejoin:miter;stroke:rgb(0%,0%,100%);stroke-opacity:1;stroke-miterlimit:10;" d="M 89.496094 115.582031 L 67.605469 97.535156 "/>
<path style="fill:none;stroke-width:1.2;stroke-linecap:butt;stroke-linejoin:miter;stroke:rgb(0%,0%,0%);stroke-opacity:1;stroke-miterlimit:10;" d="M 113.425781 100.339844 L 101.460938 107.960938 "/>
<path style="fill:none;stroke-width:1.2;stroke-linecap:butt;stroke-linejoin:miter;stroke:rgb(0%,0%,100%);stroke-opacity:1;stroke-miterlimit:10;" d="M 101.460938 107.960938 L 89.496094 115.582031 "/>
<path style=" stroke:none;fill-rule:nonzero;fill:rgb(100%,100%,100%);fill-opacity:1;" d="M 85.496094 109.082031 L 93.496094 109.082031 L 93.496094 122.082031 L 85.496094 122.082031 Z M 85.496094 109.082031 "/>
<g style="fill:rgb(0%,0%,100%);fill-opacity:1;">
  <use xlink:href="#glyph0-2" x="85.496094" y="118.983398"/>
</g>
<path style="fill:none;stroke-width:1.2;stroke-linecap:butt;stroke-linejoin:miter;stroke:rgb(0%,0%,100%);stroke-opacity:1;stroke-miterlimit:10;" d="M 67.605469 97.535156 L 78.003906 71.136719 "/>
<path style="fill:none;stroke-width:1.2;stroke-linecap:butt;stroke-linejoin:miter;stroke:rgb(0%,0%,100%);stroke-opacity:1;stroke-miterlimit:10;" d="M 74.855469 97.34375 L 83.175781 76.222656 "/>
<path style=" stroke:none;fill-rule:nonzero;fill:rgb(100%,100%,100%);fill-opacity:1;" d="M 63.605469 91.035156 L 71.605469 91.035156 L 71.605469 104.035156 L 63.605469 104.035156 Z M 63.605469 91.035156 "/>
<g style="fill:rgb(0%,0%,100%);fill-opacity:1;">
  <use xlink:href="#glyph0-2" x="63.605469" y="100.936523"/>
</g>
<path style="fill:none;stroke-width:1.2;stroke-linecap:butt;stroke-linejoin:miter;stroke:rgb(0%,0%,100%);stroke-opacity:1;stroke-miterlimit:10;" d="M 78.003906 71.136719 L 106.324219 72.871094 "/>
<path style=" stroke:none;fill-rule:nonzero;fill:rgb(100%,100%,100%);fill-opacity:1;" d="M 74.003906 64.636719 L 82.003906 64.636719 L 82.003906 77.636719 L 74.003906 77.636719 Z M 74.003906 64.636719 "/>
<g style="fill:rgb(0%,0%,100%);fill-opacity:1;">
  <use xlink:href="#glyph0-2" x="74.003906" y="74.538086"/>
</g>
<path style="fill:none;stroke-width:1.2;stroke-linecap:butt;stroke-linejoin:miter;stroke:rgb(0%,0%,100%);stroke-opacity:1;stroke-miterlimit:10;" d="M 106.324219 72.871094 L 109.875 86.605469 "/>
<path style="fill:none;stroke-width:1.2;stroke-linecap:butt;stroke-linejoin:miter;stroke:rgb(0%,0%,0%);stroke-opacity:1;stroke-miterlimit:10;" d="M 109.875 86.605469 L 113.425781 100.339844 "/>
<path style="fill:none;stroke-width:1.2;stroke-linecap:butt;stroke-linejoin:miter;stroke:rgb(0%,0%,100%);stroke-opacity:1;stroke-miterlimit:10;" d="M 100.570312 77.289062 L 103.410156 88.277344 "/>
<path style="fill:none;stroke-width:1.2;stroke-linecap:butt;stroke-linejoin:miter;stroke:rgb(0%,0%,0%);stroke-opacity:1;stroke-miterlimit:10;" d="M 103.410156 88.277344 L 106.253906 99.265625 "/>
<path style=" stroke:none;fill-rule:nonzero;fill:rgb(100%,100%,100%);fill-opacity:1;" d="M 102.324219 66.371094 L 110.324219 66.371094 L 110.324219 79.371094 L 102.324219 79.371094 Z M 102.324219 66.371094 "/>
<g style="fill:rgb(0%,0%,100%);fill-opacity:1;">
  <use xlink:href="#glyph0-2" x="102.324219" y="76.272461"/>
</g>
<path style="fill:none;stroke-width:1.2;stroke-linecap:butt;stroke-linejoin:miter;stroke:rgb(0%,0%,0%);stroke-opacity:1;stroke-miterlimit:10;" d="M 113.425781 100.339844 L 139.824219 110.738281 "/>
<path style="fill:none;stroke-width:1.2;stroke-linecap:butt;stroke-linejoin:miter;stroke:rgb(0%,0%,0%);stroke-opacity:1;stroke-miterlimit:10;" d="M 139.824219 110.738281 L 144.019531 138.796875 "/>
<path style="fill:none;stroke-width:1.2;stroke-linecap:butt;stroke-linejoin:miter;stroke:rgb(0%,0%,0%);stroke-opacity:1;stroke-miterlimit:10;" d="M 146.847656 112.558594 L 150.203125 135.007812 "/>
<path style="fill:none;stroke-width:1.2;stroke-linecap:butt;stroke-linejoin:miter;stroke:rgb(0%,0%,0%);stroke-opacity:1;stroke-miterlimit:10;" d="M 162.03125 93.074219 L 139.824219 110.738281 "/>
<path style="fill:none;stroke-width:1.2;stroke-linecap:butt;stroke-linejoin:miter;stroke:rgb(0%,0%,0%);stroke-opacity:1;stroke-miterlimit:10;" d="M 144.019531 138.796875 L 170.417969 149.199219 "/>
<path style="fill:none;stroke-width:1.2;stroke-linecap:butt;stroke-linejoin:miter;stroke:rgb(0%,0%,0%);stroke-opacity:1;stroke-miterlimit:10;" d="M 170.417969 149.199219 L 175.386719 162.484375 "/>
<path style="fill:none;stroke-width:1.2;stroke-linecap:butt;stroke-linejoin:miter;stroke:rgb(0%,0%,100%);stroke-opacity:1;stroke-miterlimit:10;" d="M 175.386719 162.484375 L 180.351562 175.773438 "/>
<path style="fill:none;stroke-width:1.2;stroke-linecap:butt;stroke-linejoin:miter;stroke:rgb(0%,0%,0%);stroke-opacity:1;stroke-miterlimit:10;" d="M 192.621094 131.535156 L 170.417969 149.199219 "/>
<path style="fill:none;stroke-width:1.2;stroke-linecap:butt;stroke-linejoin:miter;stroke:rgb(0%,0%,0%);stroke-opacity:1;stroke-miterlimit:10;" d="M 186.246094 128.078125 L 168.480469 142.207031 "/>
<path style="fill:none;stroke-width:1.2;stroke-linecap:butt;stroke-linejoin:miter;stroke:rgb(0%,0%,100%);stroke-opacity:1;stroke-miterlimit:10;" d="M 180.351562 175.773438 L 172.523438 187.601562 "/>
<path style="fill:none;stroke-width:1.2;stroke-linecap:butt;stroke-linejoin:miter;stroke:rgb(0%,0%,0%);stroke-opacity:1;stroke-miterlimit:10;" d="M 172.523438 187.601562 L 164.691406 199.433594 "/>
<path style="fill:none;stroke-width:1.2;stroke-linecap:butt;stroke-linejoin:miter;stroke:rgb(0%,0%,100%);stroke-opacity:1;stroke-miterlimit:10;" d="M 180.351562 175.773438 L 194.527344 175.15625 "/>
<path style="fill:none;stroke-width:1.2;stroke-linecap:butt;stroke-linejoin:miter;stroke:rgb(0%,0%,0%);stroke-opacity:1;stroke-miterlimit:10;" d="M 194.527344 175.15625 L 208.699219 174.535156 "/>
<path style=" stroke:none;fill-rule:nonzero;fill:rgb(100%,100%,100%);fill-opacity:1;" d="M 176.351562 169.273438 L 184.351562 169.273438 L 184.351562 182.273438 L 176.351562 182.273438 Z M 176.351562 169.273438 "/>
<g style="fill:rgb(0%,0%,100%);fill-opacity:1;">
  <use xlink:href="#glyph0-2" x="176.351562" y="179.174805"/>
</g>
<path style="fill:none;stroke-width:1.2;stroke-linecap:butt;stroke-linejoin:miter;stroke:rgb(0%,0%,0%);stroke-opacity:1;stroke-miterlimit:10;" d="M 164.691406 199.433594 L 136.375 197.699219 "/>
<path style="fill:none;stroke-width:1.2;stroke-linecap:butt;stroke-linejoin:miter;stroke:rgb(0%,0%,0%);stroke-opacity:1;stroke-miterlimit:10;" d="M 206.085938 176.613281 L 214.917969 187.714844 "/>
<path style="fill:none;stroke-width:1.2;stroke-linecap:butt;stroke-linejoin:miter;stroke:rgb(100%,0%,0%);stroke-opacity:1;stroke-miterlimit:10;" d="M 214.917969 187.714844 L 223.75 198.820312 "/>
<path style="fill:none;stroke-width:1.2;stroke-linecap:butt;stroke-linejoin:miter;stroke:rgb(0%,0%,0%);stroke-opacity:1;stroke-miterlimit:10;" d="M 211.3125 172.457031 L 220.140625 183.558594 "/>
<path style="fill:none;stroke-width:1.2;stroke-linecap:butt;stroke-linejoin:miter;stroke:rgb(100%,0%,0%);stroke-opacity:1;stroke-miterlimit:10;" d="M 220.140625 183.558594 L 228.972656 194.664062 "/>
<path style="fill:none;stroke-width:1.2;stroke-linecap:butt;stroke-linejoin:miter;stroke:rgb(0%,0%,0%);stroke-opacity:1;stroke-miterlimit:10;" d="M 208.699219 174.535156 L 212.488281 160.867188 "/>
<path style="fill:none;stroke-width:1.2;stroke-linecap:butt;stroke-linejoin:miter;stroke:rgb(0%,0%,100%);stroke-opacity:1;stroke-miterlimit:10;" d="M 212.488281 160.867188 L 216.28125 147.195312 "/>
<path style=" stroke:none;fill-rule:nonzero;fill:rgb(100%,100%,100%);fill-opacity:1;" d="M 222.359375 190.242188 L 231.359375 190.242188 L 231.359375 203.242188 L 222.359375 203.242188 Z M 222.359375 190.242188 "/>
<g style="fill:rgb(100%,0%,0%);fill-opacity:1;">
  <use xlink:href="#glyph0-3" x="222.359375" y="200.143555"/>
</g>
<path style="fill:none;stroke-width:1.2;stroke-linecap:butt;stroke-linejoin:miter;stroke:rgb(0%,0%,100%);stroke-opacity:1;stroke-miterlimit:10;" d="M 216.28125 147.195312 L 204.453125 139.367188 "/>
<path style="fill:none;stroke-width:1.2;stroke-linecap:butt;stroke-linejoin:miter;stroke:rgb(0%,0%,0%);stroke-opacity:1;stroke-miterlimit:10;" d="M 204.453125 139.367188 L 192.621094 131.535156 "/>
<path style="fill:none;stroke-width:1.2;stroke-linecap:butt;stroke-linejoin:miter;stroke:rgb(0%,0%,100%);stroke-opacity:1;stroke-miterlimit:10;" d="M 216.28125 147.195312 L 229.570312 142.226562 "/>
<path style="fill:none;stroke-width:1.2;stroke-linecap:butt;stroke-linejoin:miter;stroke:rgb(0%,0%,0%);stroke-opacity:1;stroke-miterlimit:10;" d="M 229.570312 142.226562 L 242.855469 137.257812 "/>
<path style=" stroke:none;fill-rule:nonzero;fill:rgb(100%,100%,100%);fill-opacity:1;" d="M 212.28125 140.695312 L 220.28125 140.695312 L 220.28125 153.695312 L 212.28125 153.695312 Z M 212.28125 140.695312 "/>
<g style="fill:rgb(0%,0%,100%);fill-opacity:1;">
  <use xlink:href="#glyph0-2" x="212.28125" y="150.59668"/>
</g>
<path style="fill:none;stroke-width:1.2;stroke-linecap:butt;stroke-linejoin:miter;stroke:rgb(0%,0%,0%);stroke-opacity:1;stroke-miterlimit:10;" d="M 192.621094 131.535156 L 188.429688 103.472656 "/>
<path style="fill:none;stroke-width:1.2;stroke-linecap:butt;stroke-linejoin:miter;stroke:rgb(0%,0%,0%);stroke-opacity:1;stroke-miterlimit:10;" d="M 188.429688 103.472656 L 162.03125 93.074219 "/>
<path style="fill:none;stroke-width:1.2;stroke-linecap:butt;stroke-linejoin:miter;stroke:rgb(0%,0%,0%);stroke-opacity:1;stroke-miterlimit:10;" d="M 183.339844 108.644531 L 162.222656 100.328125 "/>
<path style="fill:none;stroke-width:1.2;stroke-linecap:butt;stroke-linejoin:miter;stroke:rgb(0%,0%,0%);stroke-opacity:1;stroke-miterlimit:10;" d="M 242.855469 137.257812 L 264.75 155.304688 "/>
<path style="fill:none;stroke-width:1.2;stroke-linecap:butt;stroke-linejoin:miter;stroke:rgb(0%,0%,0%);stroke-opacity:1;stroke-miterlimit:10;" d="M 62.375 156.5625 L 60.640625 184.882812 "/>
<path style="fill:none;stroke-width:1.2;stroke-linecap:butt;stroke-linejoin:miter;stroke:rgb(0%,0%,0%);stroke-opacity:1;stroke-miterlimit:10;" d="M 68.863281 159.800781 L 67.476562 182.457031 "/>
<path style="fill:none;stroke-width:1.2;stroke-linecap:butt;stroke-linejoin:miter;stroke:rgb(0%,0%,0%);stroke-opacity:1;stroke-miterlimit:10;" d="M 60.640625 184.882812 L 35.25 197.542969 "/>
</g>
</svg>

<svg xmlns="http://www.w3.org/2000/svg" xmlns:xlink="http://www.w3.org/1999/xlink" width="300pt" height="300pt" viewBox="0 0 300 300"><defs><symbol overflow="visible"><path d="M.547 1.938V-7.75h5.5v9.688zm.625-.61h4.266v-8.47H1.171zm0 0"/></symbol><symbol overflow="visible" id="a"><path d="M1.078-8.016h4.61v.907H2.171v2.36h3.172v.922H2.172V0H1.078zm0 0"/></symbol><symbol overflow="visible" id="b"><path d="M1.078-8.016h1.47l3.546 6.704v-6.704h1.062V0H5.688L2.124-6.703V0H1.078zm0 0"/></symbol><symbol overflow="visible" id="c"><path d="M4.328-7.28c-.78 0-1.406.296-1.875.89-.46.585-.687 1.382-.687 2.39 0 1.012.226 1.813.687 2.406.47.586 1.094.875 1.875.875.79 0 1.414-.288 1.875-.874.457-.593.688-1.394.688-2.406 0-1.008-.23-1.805-.687-2.39-.46-.594-1.086-.89-1.875-.89zm0-.892c1.125 0 2.024.383 2.703 1.14C7.708-6.28 8.048-5.27 8.048-4c0 1.262-.34 2.273-1.016 3.03C6.353-.22 5.454.157 4.33.157S2.3-.22 1.625-.97c-.668-.75-1-1.757-1-3.03 0-1.27.332-2.28 1-3.03.676-.76 1.578-1.142 2.703-1.142zm0 0"/></symbol></defs><g><path fill="#fff" d="M0 0h300v300H0z"/><path d="M82.57 228.863l.864-14.16" stroke-width="1.2" stroke="#3cc" stroke-miterlimit="10" fill="none"/><path d="M83.434 214.703l.867-14.16" stroke-width="1.2" stroke="#000" stroke-miterlimit="10" fill="none"/><path d="M79.57 222.363h7v13h-7zm0 0" fill="#fff"/><use xlink:href="#a" x="79.57" y="232.265" fill="#3cc"/><path d="M84.3 200.543l25.39-12.66M83.863 193.3l20.313-10.124M60.64 184.883l23.66 15.66M109.69 187.883l1.736-28.32M111.426 159.563l-23.66-15.66M105.375 163.563l-18.93-12.528M87.766 143.902l.867-14.16" stroke-width="1.2" stroke="#000" stroke-miterlimit="10" fill="none"/><path d="M88.633 129.742l.863-14.16" stroke-width="1.2" stroke="#00f" stroke-miterlimit="10" fill="none"/><path d="M87.766 143.902l-25.39 12.66" stroke-width="1.2" stroke="#000" stroke-miterlimit="10" fill="none"/><path d="M89.496 115.582l-21.89-18.047" stroke-width="1.2" stroke="#00f" stroke-miterlimit="10" fill="none"/><path d="M113.426 100.34l-11.965 7.62" stroke-width="1.2" stroke="#000" stroke-miterlimit="10" fill="none"/><path d="M101.46 107.96l-11.964 7.622" stroke-width="1.2" stroke="#00f" stroke-miterlimit="10" fill="none"/><path d="M85.496 109.082h8v13h-8zm0 0" fill="#fff"/><use xlink:href="#b" x="85.496" y="118.983" fill="#00f"/><path d="M67.605 97.535l10.4-26.398M74.855 97.344l8.32-21.12" stroke-width="1.2" stroke="#00f" stroke-miterlimit="10" fill="none"/><path d="M63.605 91.035h8v13h-8zm0 0" fill="#fff"/><use xlink:href="#b" x="63.605" y="100.937" fill="#00f"/><path d="M78.004 71.137l28.32 1.734" stroke-width="1.2" stroke="#00f" stroke-miterlimit="10" fill="none"/><path d="M74.004 64.637h8v13h-8zm0 0" fill="#fff"/><use xlink:href="#b" x="74.004" y="74.538" fill="#00f"/><path d="M106.324 72.87l3.55 13.735" stroke-width="1.2" stroke="#00f" stroke-miterlimit="10" fill="none"/><path d="M109.875 86.605l3.55 13.735" stroke-width="1.2" stroke="#000" stroke-miterlimit="10" fill="none"/><path d="M100.57 77.29l2.84 10.987" stroke-width="1.2" stroke="#00f" stroke-miterlimit="10" fill="none"/><path d="M103.41 88.277l2.844 10.99" stroke-width="1.2" stroke="#000" stroke-miterlimit="10" fill="none"/><path d="M102.324 66.37h8v13h-8zm0 0" fill="#fff"/><use xlink:href="#b" x="102.324" y="76.272" fill="#00f"/><path d="M113.426 100.34l26.398 10.398M139.824 110.738l4.196 28.06M146.848 112.56l3.355 22.448M162.03 93.074l-22.206 17.664M144.02 138.797l26.398 10.402M170.418 149.2l4.97 13.284" stroke-width="1.2" stroke="#000" stroke-miterlimit="10" fill="none"/><path d="M175.387 162.484l4.965 13.29" stroke-width="1.2" stroke="#00f" stroke-miterlimit="10" fill="none"/><path d="M192.62 131.535L170.42 149.2M186.246 128.078l-17.766 14.13" stroke-width="1.2" stroke="#000" stroke-miterlimit="10" fill="none"/><path d="M180.352 175.773l-7.83 11.83" stroke-width="1.2" stroke="#00f" stroke-miterlimit="10" fill="none"/><path d="M172.523 187.602l-7.832 11.832" stroke-width="1.2" stroke="#000" stroke-miterlimit="10" fill="none"/><path d="M180.352 175.773l14.175-.617" stroke-width="1.2" stroke="#00f" stroke-miterlimit="10" fill="none"/><path d="M194.527 175.156l14.172-.62" stroke-width="1.2" stroke="#000" stroke-miterlimit="10" fill="none"/><path d="M176.352 169.273h8v13h-8zm0 0" fill="#fff"/><use xlink:href="#b" x="176.352" y="179.175" fill="#00f"/><path d="M164.69 199.434l-28.315-1.735M206.086 176.613l8.832 11.102" stroke-width="1.2" stroke="#000" stroke-miterlimit="10" fill="none"/><path d="M214.918 187.715l8.832 11.105" stroke-width="1.2" stroke="#f00" stroke-miterlimit="10" fill="none"/><path d="M211.313 172.457l8.828 11.102" stroke-width="1.2" stroke="#000" stroke-miterlimit="10" fill="none"/><path d="M220.14 183.56l8.833 11.104" stroke-width="1.2" stroke="#f00" stroke-miterlimit="10" fill="none"/><path d="M208.7 174.535l3.788-13.668" stroke-width="1.2" stroke="#000" stroke-miterlimit="10" fill="none"/><path d="M212.488 160.867l3.793-13.672" stroke-width="1.2" stroke="#00f" stroke-miterlimit="10" fill="none"/><path d="M222.36 190.242h9v13h-9zm0 0" fill="#fff"/><use xlink:href="#c" x="222.359" y="200.144" fill="#f00"/><path d="M216.28 147.195l-11.827-7.828" stroke-width="1.2" stroke="#00f" stroke-miterlimit="10" fill="none"/><path d="M204.453 139.367l-11.832-7.832" stroke-width="1.2" stroke="#000" stroke-miterlimit="10" fill="none"/><path d="M216.28 147.195l13.29-4.968" stroke-width="1.2" stroke="#00f" stroke-miterlimit="10" fill="none"/><path d="M229.57 142.227l13.285-4.97" stroke-width="1.2" stroke="#000" stroke-miterlimit="10" fill="none"/><path d="M212.28 140.695h8v13h-8zm0 0" fill="#fff"/><use xlink:href="#b" x="212.281" y="150.597" fill="#00f"/><path d="M192.62 131.535l-4.19-28.062M188.43 103.473l-26.4-10.4M183.34 108.645l-21.117-8.317M242.855 137.258l21.895 18.047M62.375 156.563l-1.734 28.32M68.863 159.8l-1.386 22.657M60.64 184.883l-25.39 12.66" stroke-width="1.2" stroke="#000" stroke-miterlimit="10" fill="none"/></g></svg>
